src/assets/icons/fa/camera-retro.svg

<?xml version="1.0" encoding="utf-8"?>
<svg width="1792" height="1792" viewBox="0 0 1792 1792" xmlns="http://www.w3.org/2000/svg"><path d="M928 832q0-14-9-23t-23-9q-66 0-113 47t-47 113q0 14 9 23t23 9 23-9 9-23q0-40 28-68t68-28q14 0 23-9t9-23zm224 130q0 106-75 181t-181 75-181-75-75-181 75-181 181-75 181 75 75 181zm-1024 574h1536v-128h-1536v128zm1152-574q0-159-112.5-271.5t-271.5-112.5-271.5 112.5-112.5 271.5 112.5 271.5 271.5 112.5 271.5-112.5 112.5-271.5zm-1024-642h384v-128h-384v128zm-128 192h1536v-256h-828l-64 128h-644v128zm1664-256v1280q0 53-37.5 90.5t-90.5 37.5h-1536q-53 0-90.5-37.5t-37.5-90.5v-1280q0-53 37.5-90.5t90.5-37.5h1536q53 0 90.5 37.5t37.5 90.5z"/></svg>

<svg xmlns="http://www.w3.org/2000/svg" viewBox="0 0 1792 1792"><path d="M928 832q0-14-9-23t-23-9q-66 0-113 47t-47 113q0 14 9 23t23 9 23-9 9-23q0-40 28-68t68-28q14 0 23-9t9-23zm224 130q0 106-75 181t-181 75-181-75-75-181 75-181 181-75 181 75 75 181zM128 1536h1536v-128H128v128zm1152-574q0-159-112.5-271.5T896 578 624.5 690.5 512 962t112.5 271.5T896 1346t271.5-112.5T1280 962zM256 320h384V192H256v128zM128 512h1536V256H836l-64 128H128v128zm1664-256v1280q0 53-37.5 90.5T1664 1664H128q-53 0-90.5-37.5T0 1536V256q0-53 37.5-90.5T128 128h1536q53 0 90.5 37.5T1792 256z"/></svg>
